X:1
T:Partition sans titre
C:Compositeur / Arrangeur
L:1/8
M:4/4
I:linebreak $
K:E
V:1 treble nm="Violon" snm="Vln."
V:1
"E" BG (3GGG Bcef | gfeg"A" fece | f3 g fece | acgc fece |"E" BG (3GGG Bcef | gfeg"A" fece | %6
 f3 g fecB |1 cefg"E" e2 z2 :|2 cefg"E" efga |:"E" be (3eee bec'e | bege"A" fece | f3 g fece | %12
 aege fece |1"E" be (3eee bec'e | bege"A" fece | f3 g fecB | cefg"E" efga :|2"E" BG (3GGG Bcef | %18
 gfeg"A" fece | f3 g fecB | cefg"E" e2 z2 |] %21
